icon-themes/sifr_svg/cmd/sc_tablemodevariable.svg

<svg viewBox="0 0 16 16" xmlns="http://www.w3.org/2000/svg"><path d="m1 1v7h2v-2h3v2h1v-2h3v2h1v-2h3v2h2v-7zm2 2h3v2h-3zm4 0h3v2h-3zm4 0h3v2h-3zm-7 7c-.26531.00003-.53058.1-.7.28125l-2 2-.3.28125v.875l.28125.28125 2 2c.18818.18125.45346.28125.71875.28125h1v-1c.00004-.26531-.1-.53057-.28125-.7l-.28125-.3h.5625 1v-2h-1-.5625l.2625-.3c.2069-.16942.3-.4347.3-.7v-1zm8 0v1c0 .2653.0931.53058.28125.7l.28125.3h-.5625-1v2h1 .5625l-.28125.28125c-.18125.18818-.28129.45344-.28125.71875v1h1c.26529 0 .53057-.1.7-.28125l2-2 .3-.28125v-.875l-.28125-.28125-2-2c-.18817-.18125-.45344-.28125-.71875-.28125z" fill="#555753"/></svg>

<svg xmlns="http://www.w3.org/2000/svg" viewBox="0 0 16 16">
  <path
     style="fill:#555753"
     d="M 1,1 V 8 H 3 V 6 H 6 V 8 H 7 V 6 h 3 v 2 h 1 V 6 h 3 v 2 h 2 V 1 Z M 3,3 H 6 V 5 H 3 Z m 4,0 h 3 V 5 H 7 Z m 4,0 h 3 v 2 h -3 z m -7,7 c -0.26531,3e-5 -0.53058,0.1 -0.7,0.28125 l -2,2 L 1,12.5625 v 0.875 l 0.28125,0.28125 2,2 C 3.46943,15.9 3.73471,16 4,16 h 1 v -1 c 4e-5,-0.26531 -0.1,-0.53057 -0.28125,-0.7 L 4.4375,14 H 5 6 V 12 H 5 4.4375 L 4.7,11.7 C 4.9069,11.53058 5,11.2653 5,11 v -1 z m 8,0 v 1 c 0,0.2653 0.0931,0.53058 0.28125,0.7 L 12.5625,12 H 12 11 v 2 h 1 0.5625 l -0.28125,0.28125 C 12.1,14.46943 11.99996,14.73469 12,15 v 1 h 1 c 0.26529,0 0.53057,-0.1 0.7,-0.28125 l 2,-2 L 16,13.4375 v -0.875 l -0.28125,-0.28125 -2,-2 C 13.53058,10.1 13.26531,10 13,10 Z"
     />
</svg>
